X:1
T:St. Hilda (Barnby), 87.87 D
T:St. Hilda (Barnby), 87.87 D
T:Joseph Barnby, 1861
T:Public Domain Courtesy of the Cyber Hymnal™
C:Joseph Barnby, 1861
Z:Public Domain
Z:Courtesy of the Cyber Hymnal™
%%score ( 1 2 ) ( 3 4 )
L:1/8
Q:1/4=110
M:4/4
K:Eb
V:1 treble 
V:2 treble 
V:3 bass 
V:4 bass 
V:1
 E2 E2 [EF]2 [EG]2 | [Ec]2 [_DB]2 [DB]2 [DA]2 | [DG]2 [DF]2 [EB]2 [EG]2 | E2 [CF]2 [DG]4 | %4
 E2 E2 [DF]2 [EG]2 | [Ec]2 [EB]2 [EB]2 [EA]2 | [Ec]2 [Fc]2 [Gc]2 G2 | [F=A]2 [F=B]2 [Ec]4 | %8
 [GB]2 [^F=A]2 [Gc]2 [GB]2 | [_DG]2 [DE]2 [CF]2 [CE]2 | [EA]2 [EG]2 [EF]2 [EG]2 | %11
 [EF]2 [Ec]2 [DB]4 | E2 E2 [DF]2 [EG]2 | [_Dc]2 [DB]2 [DB]2 [CA]2 | [Cc]2 [Ec]2 [Ee]2 [EB]2 | %15
 [DG]3 [DF] E4 |] %16
V:2
 E2 E2 x4 | x8 | x8 | E2 x6 | E2 E2 x4 | x8 | x6 G2 | x8 | x8 | x8 | x8 | x8 | E2 E2 x4 | x8 | x8 | %15
 x4 E4 |] %16
V:3
 [E,G,]2 [E,G,]2 [E,A,]2 [E,B,]2 | E,2 [E,G,]2 [A,,G,]2 [A,,A,]2 | %2
 [A,B,]2 [A,B,]2 [G,B,]2 [E,B,]2 | [C,C]2 [A,,C]2 [G,,=B,]4 | [C,C]2 [C,G,]2 [B,,B,]2 [E,B,]2 | %5
 [E,E]2 [E,_D]2 [A,,D]2 [A,,C]2 | [A,C]2 [A,D]2 [G,E]2 [G,E]2 | [G,D]2 [G,D]2 [C,C]4 | %8
 [E,_D]2 [E,C]2 [E,D]2 [E,D]2 | [E,B,]2 [E,G,]2 [A,,A,]2 [A,,A,]2 | %10
 [A,,C]2 [B,,B,]2 [C,=A,]2 [B,,B,]2 | [=A,,C]2 [F,,=A,]2 (B,2 _A,2) | %12
 [C,G,]2 [C,G,]2 [B,,B,]2 [E,B,]2 | [E,A,]2 [E,G,]2 [A,,G,]2 [A,,A,]2 | %14
 [A,,E,]2 [=A,,F,]2 [B,,G,]2 [B,,G,]2 | [B,,A,]3 [B,,A,] [E,G,]4 |] %16
V:4
 x8 | E,2 x6 | x8 | x8 | x8 | x8 | x8 | x8 | x8 | x8 | x8 | x4 B,,4 | x8 | x8 | x8 | x8 |] %16

